symbols/web/format_textdirection_r_to_l/materialsymbolsrounded/format_textdirection_r_to_l_wght500gradN25fill1_40px.svg

<svg xmlns="http://www.w3.org/2000/svg" height="40" width="40"><path d="m10.5 35.708-4.375-4.375q-.25-.25-.354-.5-.104-.25-.104-.541 0-.334.104-.584.104-.25.354-.5l4.375-4.375q.417-.416 1-.416t1 .416q.458.459.458 1.042t-.458 1l-1.917 1.958H33.5q.625 0 1.042.438.416.437.416 1.021 0 .625-.416 1.041-.417.417-1.042.417H10.583l1.917 1.958q.458.417.458 1 0 .584-.458 1-.417.417-1 .417t-1-.417Zm7.375-10.833q-.625 0-1.042-.417-.416-.416-.416-1v-7.375q-2.75-.041-4.688-1.875-1.937-1.833-1.937-4.5 0-2.708 1.875-4.562t4.541-1.854h10.75q.625 0 1.042.437.417.438.417 1.021 0 .625-.417 1.042-.417.416-1.042.416h-2.125v17.25q0 .584-.437 1-.438.417-1.021.417t-1-.417q-.417-.416-.417-1V6.208h-2.625v17.25q0 .584-.437 1-.438.417-1.021.417Z"/></svg>

<svg xmlns="http://www.w3.org/2000/svg" height="40" width="40"><path d="M10.5 35.708 6.125 31.333Q5.875 31.083 5.771 30.833Q5.667 30.583 5.667 30.292Q5.667 29.958 5.771 29.708Q5.875 29.458 6.125 29.208L10.5 24.833Q10.917 24.417 11.5 24.417Q12.083 24.417 12.5 24.833Q12.958 25.292 12.958 25.875Q12.958 26.458 12.5 26.875L10.583 28.833H33.5Q34.125 28.833 34.542 29.271Q34.958 29.708 34.958 30.292Q34.958 30.917 34.542 31.333Q34.125 31.75 33.5 31.75H10.583L12.5 33.708Q12.958 34.125 12.958 34.708Q12.958 35.292 12.5 35.708Q12.083 36.125 11.5 36.125Q10.917 36.125 10.5 35.708ZM17.875 24.875Q17.25 24.875 16.833 24.458Q16.417 24.042 16.417 23.458V16.083Q13.667 16.042 11.729 14.208Q9.792 12.375 9.792 9.708Q9.792 7 11.667 5.146Q13.542 3.292 16.208 3.292H26.958Q27.542 3.292 27.979 3.729Q28.417 4.167 28.417 4.75Q28.417 5.375 27.979 5.792Q27.542 6.208 26.958 6.208H24.833V23.458Q24.833 24.042 24.396 24.458Q23.958 24.875 23.375 24.875Q22.792 24.875 22.375 24.458Q21.958 24.042 21.958 23.458V6.208H19.333V23.458Q19.333 24.042 18.896 24.458Q18.458 24.875 17.875 24.875ZM16.417 13.208V6.208Q14.833 6.208 13.771 7.125Q12.708 8.042 12.708 9.667Q12.708 11.292 13.771 12.25Q14.833 13.208 16.417 13.208ZM16.417 13.125Q14.917 13.125 13.875 12.167Q12.833 11.208 12.833 9.667Q12.833 8.167 13.875 7.208Q14.917 6.25 16.417 6.25Z"/></svg>
